X:1
T:Ahi se credete
T:Benedetto Ferrari
T:Source : Musiche Varie a voce sola---Libro primo---Venetia---B.Magni---1633. Editor : André Vierendeels (30/12/16).
T:Notes : Original clefs : C1, F4 Figures in BC are notated in original print
T:Ahi se credete
T:©
T:©
T:©
C:Benedetto Ferrari
Z:©
%%score 1 2
L:1/8
Q:1/4=120
M:6/4
K:C
V:1 treble-8 nm="Tenor" snm="T"
V:2 bass nm="MusicXML Part"
V:1
 B2 A2 G2 G6 | A6 A6 | G6 G2 A2 B2 | c6 Bc- d4 | B6 A6 | B2 c2 d2 e2- d4 | d6 d6 |[M:3/4] c6 :: %8
w: Ahi se cre- de-|te'a- man-|ti che di so-|spi ri e- *|pian- ti|s'ap- pa- ghi'un cor _|di Don-|na|
w: Non vol vir- tu-|te o|gra- ti- a per|far la Don- na|sa- ti-|a e in- gor _|da vo-|glia|
w: Chi dal- la Don-|na vuo-|le al- tro ha-|ver che pa- *|ro- le,|can- g'in con- tan- *|t'i pian-|ti,|
[M:6/4] e2 e2 d2 d2 c2 c2 | d2 e2 f2 d6 | c6 z6 | e4 c2 c2 d2 c2 | B6 A6 | E2 A2 G2 T^F4 E2 | %14
w: ben se- te scioc- chi, se|te scioc- chi sol-|li,|l'o- ro, l'o- ro'e l'ar-|gen- to|per na- tu- ral ta-|
w: fuor che quel ch'a tut- t'ho-|re si gli'è gra-|to,|chie- de tut'- t'or, le|gen- ti,|il mon- do'e gli'e- le-|
w: in vec- ce di so- spir|trag- ga mo- ve-|te,|ch'o- gni'a- ma- tor dis-|prez- za|e sol- l'o- ro'ac- ca-|
 E6 E6 | z2 D2 D2 E3 ^F G2 | G4 ^F2 G2 G2 G2 | A2 B2 c2 c4 B2 | c2 E2 E2 ^F3 ^G A2 | %19
w: len- to,|que- sto bra- ma la|Don- na si sem- pre,|sem- pre la mor- te'l|di, que- sto bra- ma la|
w: men- ti,|||||
w: rez- za,|||||
 A4 ^G2 A2 A2 A2 | B3 ^c d2 d4 c2 | d6 z2 D2 D2 | E2 ^F2 G2 G4 F2 |[M:3/4] !fermata!G6 :| %24
w: Don- na si sem- pre,|sem- pre la mor- te'l|di, sem- pre,|sem- re la mor- te'l|di.|
w: |||||
w: |||||
V:2
"^BC" G,2 F,4 E,2 B,,4 |"^4""^#" C,2 A,,4 D,2 D,,4 | G,,6 F,2 E,2 D,2 | C,2 A,,4 F,2 D,4 | %4
"^4      #""^-natural" E,2 E,,4 A,,6 | G,,2 A,,2 B,,2 C,2 D,4 |"^4 3" E,2 F,4 G,2 G,,4 | %7
[M:3/4] C,6 ::[M:6/4] C,6 G,2 A,4 |"^4 3" F,6 G,2 G,,4 | C,2 E,4 F,2 D,2 G,2 | %11
 C,2 D,2 E,2 F,2 D,4 |"^4#""^-natural" E,6 A,,4 B,,2 |"^4    #" C,2 A,,4 B,,6 | %14
"^-natural""^-natural" E,6 E,,6 |"^6""^6" B,,6 C,6 |"^6" D,6 G,,2 E,4 | F,6 G,6 | %18
"^-natural""^8 7" C,2 A,,4 D,6 | E,6 A,,2 ^F,4 | G,6 A,6 |"^#" D,6 B,,6 |"^8 7" C,6 D,6 | %23
[M:3/4] !fermata!G,,6 :| %24

